X: 3
T: Planxty Irwin
R: jig
M: 6/8
L: 1/8
K: Gmaj
|:d| gaf efg|dec BAG|cBA Bcd|EFG A2 d| gaf efg|dec BAG|cBA Bcd|G2 F G2:||:d|gag gfg|aba afd|bc'b age|fge def|gaf efg|dec BAG|cBA Bcd|G2 F G2:|


Tune 790	Setting 23119

